dist/img/svg/isource-icon-03.svg

<svg viewBox="0 0 137 29" fill="#000000" xmlns="http://www.w3.org/2000/svg"><path d="M5.907 6.206h14.905v14.896H5.907V6.206ZM0 27.064h26.783V.267H0v26.797Z"/><path d="M17.826 9.188H8.888v8.938h8.938V9.187ZM41.457 6.46a5.655 5.655 0 0 0-.88-.08c-1.64 0-2.46.82-2.46 2.46v5.74h-2.8V3.78h2.8V5.9c.294-.734.707-1.3 1.24-1.7a2.868 2.868 0 0 1 2.1-.58v2.84ZM52.408 14.58h-3.04c-.213-.267-.32-.72-.32-1.36-.987 1.026-2.08 1.54-3.28 1.54-.947 0-1.733-.267-2.36-.8-.613-.534-.92-1.3-.92-2.3 0-.96.254-1.694.76-2.2.52-.507 1.327-.86 2.42-1.06l1.12-.2a41.857 41.857 0 0 1 1.2-.18c.12-.027.26-.067.42-.12.173-.054.293-.114.36-.18.067-.08.127-.18.18-.3.053-.134.08-.294.08-.48 0-.72-.54-1.08-1.62-1.08-.693 0-1.18.106-1.46.32-.28.213-.453.6-.52 1.16h-2.7c.173-2.494 1.713-3.74 4.62-3.74 2.947 0 4.42 1.107 4.42 3.32v6c0 .493.213.933.64 1.32v.34Zm-3.38-4.62v-.48c-.253.12-.647.233-1.18.34l-.96.18c-.6.106-1.02.26-1.26.46-.227.186-.34.48-.34.88 0 .773.507 1.16 1.52 1.16.707 0 1.253-.22 1.64-.66.387-.44.58-1.067.58-1.88ZM63.94 14.58h-2.8v-1.24c-.72.946-1.712 1.42-2.98 1.42-1.386 0-2.492-.527-3.319-1.58-.813-1.067-1.22-2.394-1.22-3.98 0-1.627.433-2.967 1.3-4.02.867-1.053 1.947-1.58 3.24-1.58 1.307 0 2.3.527 2.98 1.58V0h2.8v14.58Zm-2.8-5.34c0-1.027-.212-1.834-.64-2.42-.426-.587-1-.88-1.72-.88-.706 0-1.279.3-1.719.9-.427.586-.64 1.373-.64 2.36 0 .986.213 1.773.64 2.36.44.573 1.013.86 1.72.86.707 0 1.273-.287 1.7-.86.44-.574.66-1.347.66-2.32ZM75.747 14.58h-3.04c-.213-.267-.32-.72-.32-1.36-.987 1.026-2.08 1.54-3.28 1.54-.947 0-1.733-.267-2.36-.8-.613-.534-.92-1.3-.92-2.3 0-.96.254-1.694.76-2.2.52-.507 1.327-.86 2.42-1.06l1.12-.2a41.857 41.857 0 0 1 1.2-.18c.12-.027.26-.067.42-.12.173-.054.293-.114.36-.18.067-.08.127-.18.18-.3.053-.134.08-.294.08-.48 0-.72-.54-1.08-1.62-1.08-.693 0-1.18.106-1.46.32-.28.213-.453.6-.52 1.16h-2.7c.174-2.494 1.714-3.74 4.62-3.74 2.947 0 4.42 1.107 4.42 3.32v6c0 .493.213.933.64 1.32v.34Zm-3.38-4.62v-.48c-.253.12-.647.233-1.18.34l-.96.18c-.6.106-1.02.26-1.26.46-.227.186-.34.48-.34.88 0 .773.507 1.16 1.52 1.16.707 0 1.253-.22 1.64-.66.387-.44.58-1.067.58-1.88ZM83.78 6.46a5.655 5.655 0 0 0-.88-.08c-1.64 0-2.46.82-2.46 2.46v5.74h-2.8V3.78h2.8V5.9c.293-.734.707-1.3 1.24-1.7a2.868 2.868 0 0 1 2.1-.58v2.84ZM40.685 24.217c0 .797-.21 1.454-.628 1.97-.418.51-.947.764-1.587.764-.68 0-1.17-.264-1.47-.793V29h-1.372V21.57H37v.784c.327-.581.817-.872 1.47-.872.68 0 1.218.255 1.617.765.398.51.598 1.166.598 1.97Zm-1.372.02c0-.497-.105-.889-.314-1.176a.99.99 0 0 0-.843-.431c-.346 0-.627.143-.843.43-.209.282-.313.667-.313 1.157s.105.88.313 1.167c.216.28.497.42.843.42.34 0 .618-.14.833-.42.216-.288.324-.67.324-1.147ZM44.775 22.884a2.774 2.774 0 0 0-.432-.039c-.803 0-1.205.402-1.205 1.206v2.812h-1.372v-5.292h1.372v1.04c.144-.36.346-.638.608-.834a1.405 1.405 0 0 1 1.029-.284v1.392ZM50.632 24.256c0 .843-.235 1.503-.706 1.98-.464.477-1.1.715-1.91.715-.818 0-1.458-.238-1.922-.715-.464-.477-.696-1.15-.696-2.019 0-.862.232-1.532.696-2.009.464-.483 1.101-.725 1.911-.725.837 0 1.483.242 1.94.725.458.477.687 1.16.687 2.049Zm-1.372-.02c0-.515-.115-.917-.343-1.204a1.07 1.07 0 0 0-.902-.441c-.379 0-.683.146-.911.44-.222.288-.334.683-.334 1.186 0 .503.112.902.334 1.196.228.287.532.431.911.431.373 0 .673-.144.902-.431.228-.294.343-.686.343-1.176ZM56.26 25.03a2.081 2.081 0 0 1-.725 1.392c-.418.353-.944.53-1.578.53-.79 0-1.401-.232-1.833-.696-.43-.464-.646-1.13-.646-2 0-.895.215-1.58.646-2.057.438-.477 1.056-.716 1.853-.716.66 0 1.192.183 1.597.549.412.366.64.872.686 1.519h-1.313c-.079-.346-.193-.591-.343-.735-.144-.15-.356-.225-.637-.225-.745 0-1.117.555-1.117 1.665 0 .51.098.902.294 1.177.196.274.47.411.823.411.261 0 .467-.065.617-.196.15-.13.271-.336.363-.617h1.313ZM61.833 24.413l-.01.167h-3.547c.02.49.12.833.303 1.029.183.196.448.294.794.294.588 0 .938-.176 1.049-.53h1.352a2.01 2.01 0 0 1-.882 1.177c-.438.268-.96.401-1.568.401-.758 0-1.352-.231-1.783-.695-.425-.47-.637-1.127-.637-1.97 0-.882.215-1.568.646-2.058.438-.497 1.04-.745 1.804-.745.777 0 1.385.261 1.822.784.438.516.657 1.232.657 2.146Zm-1.43-.744c-.033-.373-.145-.654-.334-.843a.977.977 0 0 0-.735-.294c-.601 0-.947.379-1.039 1.137h2.107ZM67.327 25.295c0 .536-.199.948-.597 1.235-.399.281-.97.421-1.715.421-1.627 0-2.46-.588-2.5-1.764h1.343c.06.268.17.451.334.55.163.09.411.137.744.137.68 0 1.02-.15 1.02-.451 0-.144-.154-.265-.461-.363l-1.637-.51c-.464-.143-.774-.31-.93-.5-.151-.189-.226-.457-.226-.803 0-.542.193-.97.578-1.284.392-.32.924-.48 1.597-.48.713 0 1.271.16 1.676.48.405.314.614.752.627 1.313h-1.323c-.006-.476-.336-.715-.99-.715-.241 0-.434.046-.578.137-.143.085-.215.203-.215.353 0 .111.032.196.098.255.065.052.193.104.382.157l1.735.5c.692.202 1.038.623 1.038 1.264v.068ZM72.87 25.295c0 .536-.198.948-.597 1.235-.398.281-.97.421-1.715.421-1.627 0-2.46-.588-2.499-1.764h1.343c.058.268.17.451.333.55.163.09.412.137.745.137.68 0 1.019-.15 1.019-.451 0-.144-.154-.265-.46-.363l-1.637-.51c-.464-.143-.774-.31-.931-.5-.15-.189-.226-.457-.226-.803 0-.542.193-.97.579-1.284.392-.32.924-.48 1.597-.48.712 0 1.27.16 1.676.48.405.314.614.752.627 1.313H71.4c-.007-.476-.337-.715-.99-.715-.242 0-.434.046-.578.137-.144.085-.216.203-.216.353 0 .111.033.196.098.255.066.052.193.104.382.157l1.735.5c.693.202 1.039.623 1.039 1.264v.068ZM78.895 24.256c0 .843-.236 1.503-.706 1.98-.464.477-1.1.715-1.911.715-.817 0-1.457-.238-1.92-.715-.465-.477-.697-1.15-.697-2.019 0-.862.232-1.532.696-2.009.464-.483 1.101-.725 1.911-.725.837 0 1.483.242 1.94.725.458.477.687 1.16.687 2.049Zm-1.372-.02c0-.515-.115-.917-.343-1.204a1.07 1.07 0 0 0-.902-.441c-.379 0-.683.146-.911.44-.223.288-.334.683-.334 1.186 0 .503.111.902.334 1.196.228.287.532.431.911.431.372 0 .673-.144.902-.431.228-.294.343-.686.343-1.176ZM83.033 22.884a2.773 2.773 0 0 0-.43-.039c-.804 0-1.206.402-1.206 1.206v2.812h-1.372v-5.292h1.372v1.04c.144-.36.346-.638.607-.834a1.405 1.405 0 0 1 1.03-.284v1.392Z"/></svg>

<svg width="84" height="29" viewBox="0 0 84 29" fill="none" xmlns="http://www.w3.org/2000/svg">
<path d="M5.907 6.206H20.812V21.102H5.907V6.206ZM0 27.064H26.783V0.266998H0V27.064Z" fill="#1400DC"/>
<path d="M17.826 9.188H8.888V18.126H17.826V9.187V9.188ZM41.457 6.46C41.1662 6.41042 40.872 6.38367 40.577 6.38C38.937 6.38 38.117 7.2 38.117 8.84V14.58H35.317V3.78H38.117V5.9C38.411 5.166 38.824 4.6 39.357 4.2C39.9535 3.73797 40.708 3.52959 41.457 3.62V6.46ZM52.408 14.58H49.368C49.155 14.313 49.048 13.86 49.048 13.22C48.061 14.246 46.968 14.76 45.768 14.76C44.821 14.76 44.035 14.493 43.408 13.96C42.795 13.426 42.488 12.66 42.488 11.66C42.488 10.7 42.742 9.966 43.248 9.46C43.768 8.953 44.575 8.6 45.668 8.4L46.788 8.2C47.1871 8.1342 47.5872 8.0742 47.988 8.02C48.108 7.993 48.248 7.953 48.408 7.9C48.581 7.846 48.701 7.786 48.768 7.72C48.835 7.64 48.895 7.54 48.948 7.42C49.001 7.286 49.028 7.126 49.028 6.94C49.028 6.22 48.488 5.86 47.408 5.86C46.715 5.86 46.228 5.966 45.948 6.18C45.668 6.393 45.495 6.78 45.428 7.34H42.728C42.901 4.846 44.441 3.6 47.348 3.6C50.295 3.6 51.768 4.707 51.768 6.92V12.92C51.768 13.413 51.981 13.853 52.408 14.24V14.58ZM49.028 9.96V9.48C48.775 9.6 48.381 9.713 47.848 9.82L46.888 10C46.288 10.106 45.868 10.26 45.628 10.46C45.401 10.646 45.288 10.94 45.288 11.34C45.288 12.113 45.795 12.5 46.808 12.5C47.515 12.5 48.061 12.28 48.448 11.84C48.835 11.4 49.028 10.773 49.028 9.96ZM63.94 14.58H61.14V13.34C60.42 14.286 59.428 14.76 58.16 14.76C56.774 14.76 55.668 14.233 54.841 13.18C54.028 12.113 53.621 10.786 53.621 9.2C53.621 7.573 54.054 6.233 54.921 5.18C55.788 4.127 56.868 3.6 58.161 3.6C59.468 3.6 60.461 4.127 61.141 5.18V0H63.941V14.58H63.94ZM61.14 9.24C61.14 8.213 60.928 7.406 60.5 6.82C60.074 6.233 59.5 5.94 58.78 5.94C58.074 5.94 57.501 6.24 57.061 6.84C56.634 7.426 56.421 8.213 56.421 9.2C56.421 10.186 56.634 10.973 57.061 11.56C57.501 12.133 58.074 12.42 58.781 12.42C59.488 12.42 60.054 12.133 60.481 11.56C60.921 10.986 61.141 10.213 61.141 9.24H61.14ZM75.747 14.58H72.707C72.494 14.313 72.387 13.86 72.387 13.22C71.4 14.246 70.307 14.76 69.107 14.76C68.16 14.76 67.374 14.493 66.747 13.96C66.134 13.426 65.827 12.66 65.827 11.66C65.827 10.7 66.081 9.966 66.587 9.46C67.107 8.953 67.914 8.6 69.007 8.4L70.127 8.2C70.5261 8.1342 70.9262 8.0742 71.327 8.02C71.447 7.993 71.587 7.953 71.747 7.9C71.92 7.846 72.04 7.786 72.107 7.72C72.174 7.64 72.234 7.54 72.287 7.42C72.34 7.286 72.367 7.126 72.367 6.94C72.367 6.22 71.827 5.86 70.747 5.86C70.054 5.86 69.567 5.966 69.287 6.18C69.007 6.393 68.834 6.78 68.767 7.34H66.067C66.241 4.846 67.781 3.6 70.687 3.6C73.634 3.6 75.107 4.707 75.107 6.92V12.92C75.107 13.413 75.32 13.853 75.747 14.24V14.58ZM72.367 9.96V9.48C72.114 9.6 71.72 9.713 71.187 9.82L70.227 10C69.627 10.106 69.207 10.26 68.967 10.46C68.74 10.646 68.627 10.94 68.627 11.34C68.627 12.113 69.134 12.5 70.147 12.5C70.854 12.5 71.4 12.28 71.787 11.84C72.174 11.4 72.367 10.773 72.367 9.96ZM83.78 6.46C83.4892 6.41042 83.195 6.38367 82.9 6.38C81.26 6.38 80.44 7.2 80.44 8.84V14.58H77.64V3.78H80.44V5.9C80.733 5.166 81.147 4.6 81.68 4.2C82.2765 3.73797 83.031 3.52959 83.78 3.62V6.46ZM40.685 24.217C40.685 25.014 40.475 25.671 40.057 26.187C39.639 26.697 39.11 26.951 38.47 26.951C37.79 26.951 37.3 26.687 37 26.158V29H35.628V21.57H37V22.354C37.327 21.773 37.817 21.482 38.47 21.482C39.15 21.482 39.688 21.737 40.087 22.247C40.485 22.757 40.685 23.413 40.685 24.217ZM39.313 24.237C39.313 23.74 39.208 23.348 38.999 23.061C38.9057 22.9245 38.7796 22.8135 38.6324 22.7382C38.4851 22.6629 38.3213 22.6257 38.156 22.63C37.81 22.63 37.529 22.773 37.313 23.06C37.104 23.342 37 23.727 37 24.217C37 24.707 37.105 25.097 37.313 25.384C37.529 25.664 37.81 25.804 38.156 25.804C38.496 25.804 38.774 25.664 38.989 25.384C39.205 25.096 39.313 24.714 39.313 24.237ZM44.775 22.884C44.6322 22.8597 44.4878 22.8467 44.343 22.845C43.54 22.845 43.138 23.247 43.138 24.051V26.863H41.766V21.571H43.138V22.611C43.282 22.251 43.484 21.973 43.746 21.777C44.0383 21.5506 44.408 21.4486 44.775 21.493V22.885V22.884ZM50.632 24.256C50.632 25.099 50.397 25.759 49.926 26.236C49.462 26.713 48.826 26.951 48.016 26.951C47.198 26.951 46.558 26.713 46.094 26.236C45.63 25.759 45.398 25.086 45.398 24.217C45.398 23.355 45.63 22.685 46.094 22.208C46.558 21.725 47.195 21.483 48.005 21.483C48.842 21.483 49.488 21.725 49.945 22.208C50.403 22.685 50.632 23.368 50.632 24.257V24.256ZM49.26 24.236C49.26 23.721 49.145 23.319 48.917 23.032C48.8142 22.8903 48.6782 22.776 48.5209 22.6991C48.3637 22.6222 48.19 22.5851 48.015 22.591C47.636 22.591 47.332 22.737 47.104 23.031C46.882 23.319 46.77 23.714 46.77 24.217C46.77 24.72 46.882 25.119 47.104 25.413C47.332 25.7 47.636 25.844 48.015 25.844C48.388 25.844 48.688 25.7 48.917 25.413C49.145 25.119 49.26 24.727 49.26 24.237V24.236ZM56.26 25.03C56.2093 25.5708 55.9491 26.0704 55.535 26.422C55.117 26.775 54.591 26.952 53.957 26.952C53.167 26.952 52.556 26.72 52.124 26.256C51.694 25.792 51.478 25.126 51.478 24.256C51.478 23.361 51.693 22.676 52.124 22.199C52.562 21.722 53.18 21.483 53.977 21.483C54.637 21.483 55.169 21.666 55.574 22.032C55.986 22.398 56.214 22.904 56.26 23.551H54.947C54.868 23.205 54.754 22.96 54.604 22.816C54.46 22.666 54.248 22.591 53.967 22.591C53.222 22.591 52.85 23.146 52.85 24.256C52.85 24.766 52.948 25.158 53.144 25.433C53.34 25.707 53.614 25.844 53.967 25.844C54.228 25.844 54.434 25.779 54.584 25.648C54.734 25.518 54.855 25.312 54.947 25.031H56.26V25.03ZM61.833 24.413L61.823 24.58H58.276C58.296 25.07 58.396 25.413 58.579 25.609C58.762 25.805 59.027 25.903 59.373 25.903C59.961 25.903 60.311 25.727 60.422 25.373H61.774C61.6393 25.8627 61.3241 26.2832 60.892 26.55C60.454 26.818 59.932 26.951 59.324 26.951C58.566 26.951 57.972 26.72 57.541 26.256C57.116 25.786 56.904 25.129 56.904 24.286C56.904 23.404 57.119 22.718 57.55 22.228C57.988 21.731 58.59 21.483 59.354 21.483C60.131 21.483 60.739 21.744 61.176 22.267C61.614 22.783 61.833 23.499 61.833 24.413ZM60.403 23.669C60.37 23.296 60.258 23.015 60.069 22.826C59.9738 22.7284 59.8592 22.6519 59.7326 22.6012C59.606 22.5506 59.4702 22.527 59.334 22.532C58.733 22.532 58.387 22.911 58.295 23.669H60.402H60.403ZM67.327 25.295C67.327 25.831 67.128 26.243 66.73 26.53C66.331 26.811 65.76 26.951 65.015 26.951C63.388 26.951 62.555 26.363 62.515 25.187H63.858C63.918 25.455 64.028 25.638 64.192 25.737C64.355 25.827 64.603 25.874 64.936 25.874C65.616 25.874 65.956 25.724 65.956 25.423C65.956 25.279 65.802 25.158 65.495 25.06L63.858 24.55C63.394 24.407 63.084 24.24 62.928 24.05C62.777 23.861 62.702 23.593 62.702 23.247C62.702 22.705 62.895 22.277 63.28 21.963C63.672 21.643 64.204 21.483 64.877 21.483C65.59 21.483 66.148 21.643 66.553 21.963C66.958 22.277 67.167 22.715 67.18 23.276H65.857C65.851 22.8 65.521 22.561 64.867 22.561C64.626 22.561 64.433 22.607 64.289 22.698C64.146 22.783 64.074 22.901 64.074 23.051C64.074 23.162 64.106 23.247 64.172 23.306C64.237 23.358 64.365 23.41 64.554 23.463L66.289 23.963C66.981 24.165 67.327 24.586 67.327 25.227V25.295ZM72.87 25.295C72.87 25.831 72.672 26.243 72.273 26.53C71.875 26.811 71.303 26.951 70.558 26.951C68.931 26.951 68.098 26.363 68.059 25.187H69.402C69.46 25.455 69.572 25.638 69.735 25.737C69.898 25.827 70.147 25.874 70.48 25.874C71.16 25.874 71.499 25.724 71.499 25.423C71.499 25.279 71.345 25.158 71.039 25.06L69.402 24.55C68.938 24.407 68.628 24.24 68.471 24.05C68.321 23.861 68.245 23.593 68.245 23.247C68.245 22.705 68.438 22.277 68.824 21.963C69.216 21.643 69.748 21.483 70.421 21.483C71.133 21.483 71.691 21.643 72.097 21.963C72.502 22.277 72.711 22.715 72.724 23.276H71.4C71.393 22.8 71.063 22.561 70.41 22.561C70.168 22.561 69.976 22.607 69.832 22.698C69.688 22.783 69.616 22.901 69.616 23.051C69.616 23.162 69.649 23.247 69.714 23.306C69.78 23.358 69.907 23.41 70.096 23.463L71.831 23.963C72.524 24.165 72.87 24.586 72.87 25.227V25.295ZM78.895 24.256C78.895 25.099 78.659 25.759 78.189 26.236C77.725 26.713 77.089 26.951 76.278 26.951C75.461 26.951 74.821 26.713 74.358 26.236C73.893 25.759 73.661 25.086 73.661 24.217C73.661 23.355 73.893 22.685 74.357 22.208C74.821 21.725 75.458 21.483 76.268 21.483C77.105 21.483 77.751 21.725 78.208 22.208C78.666 22.685 78.895 23.368 78.895 24.257V24.256ZM77.523 24.236C77.523 23.721 77.408 23.319 77.18 23.032C77.0772 22.8903 76.9412 22.776 76.7839 22.6991C76.6267 22.6222 76.4529 22.5851 76.278 22.591C75.899 22.591 75.595 22.737 75.367 23.031C75.144 23.319 75.033 23.714 75.033 24.217C75.033 24.72 75.144 25.119 75.367 25.413C75.595 25.7 75.899 25.844 76.278 25.844C76.65 25.844 76.951 25.7 77.18 25.413C77.408 25.119 77.523 24.727 77.523 24.237V24.236ZM83.033 22.884C82.8909 22.8598 82.7471 22.8468 82.603 22.845C81.799 22.845 81.397 23.247 81.397 24.051V26.863H80.025V21.571H81.397V22.611C81.541 22.251 81.743 21.973 82.004 21.777C82.2965 21.5504 82.6667 21.4483 83.034 21.493V22.885L83.033 22.884Z" fill="#1400DC"/>
</svg>
